symbols/web/notifications/materialsymbolsoutlined/notifications_wght700fill1_48px.svg

<svg xmlns="http://www.w3.org/2000/svg" height="48" width="48"><path d="M5.85 39.1v-4.75h4.65v-13.9q0-4.6 2.675-8.375Q15.85 8.3 20.35 7.3V6.1q0-1.55 1.075-2.55 1.075-1 2.575-1 1.5 0 2.575 1 1.075 1 1.075 2.55v1.2q4.55 1 7.25 4.775 2.7 3.775 2.7 8.375v13.9h4.6v4.75Zm18.2 6.15q-1.8 0-3.125-1.3t-1.325-3.1h8.85q0 1.85-1.3 3.125t-3.1 1.275Z"/></svg>

<svg xmlns="http://www.w3.org/2000/svg" height="48" width="48"><path d="M5.85 39.1V34.35H10.5V20.45Q10.5 15.85 13.175 12.075Q15.85 8.3 20.35 7.3V6.1Q20.35 4.55 21.425 3.55Q22.5 2.55 24 2.55Q25.5 2.55 26.575 3.55Q27.65 4.55 27.65 6.1V7.3Q32.2 8.3 34.9 12.075Q37.6 15.85 37.6 20.45V34.35H42.2V39.1ZM24.05 45.25Q22.25 45.25 20.925 43.95Q19.6 42.65 19.6 40.85H28.45Q28.45 42.7 27.15 43.975Q25.85 45.25 24.05 45.25Z"/></svg>
